X:184
T:O'Rourke's
T:Rogue's Reel
M:4/4
L:1/8
R:reel
D:Cathal McConnell: Long Expectant Comes At Last
D:Altan: Best Of (Live CD)
D:The Chieftans: An Irish Evening
K:Amix
|:cAeA fAed|cAec dfed|cA~A2 fAde|1 fage d2ed:|2 fage d2ef||
g2fg ~e3f|gfed eaaf|gefd edBd|fage d2ef|
g2fg ~e3f|gfed ea~a2|bgaf gfed|eaag aged||
